X:2817
T:Ceux qui ont nommé les bancs
A:Normandie
O:France
M:3/4
L:1/4
Q:1/4=160
K:C
GGG|G2A|G3|EFE|D2C|E3:||
|GGB|c2B|D3|GGB|BAG|A3|DAB|
c2d|BAG|D3|AAG|B3|G3|D3|AA^F|G3||


